lg/shipit.svg

<svg viewBox="0 0 256 323" version="1.1" xmlns="http://www.w3.org/2000/svg" preserveAspectRatio="xMidYMid" height="1em" width="1em">
  <defs>
    <linearGradient x1="50%" y1="0%" x2="50%" y2="100%" id="a">
      <stop stop-color="#8783DC" offset="0%"/>
      <stop stop-color="#444361" offset="100%"/>
    </linearGradient>
  </defs>
  <g>
    <path d="M63.0313966,311.178492 C60.1328611,311.178492 57.5241791,310.816175 55.2053507,310.091541 C52.8865223,309.366907 50.671213,308.093622 48.5594228,306.271685 C48.0211234,305.816201 47.6070469,305.298605 47.3171933,304.718898 C47.0273398,304.139191 46.882413,303.559484 46.882413,302.979777 C46.882413,302.027401 47.2240261,301.188896 47.9072523,300.464262 C48.5904786,299.739628 49.4496873,299.377311 50.4848786,299.377311 C51.2716239,299.377311 51.975554,299.625757 52.5966687,300.122649 C54.1701594,301.406286 55.7332983,302.379366 57.2860851,303.041888 C58.838872,303.704411 60.7539758,304.035672 63.0313966,304.035672 C64.5634797,304.035672 65.9713398,303.797578 67.2549769,303.32139 C68.5386141,302.845202 69.5738053,302.203383 70.3605507,301.395934 C71.1472961,300.588485 71.5406687,299.667165 71.5406687,298.631974 C71.5406687,297.389744 71.1679999,296.333849 70.4226622,295.464288 C69.6773245,294.594728 68.5386141,293.859742 67.006531,293.259331 C65.474448,292.65892 63.5282884,292.193084 61.1680523,291.861823 C58.9320392,291.530561 56.9651758,291.023318 55.2674622,290.340092 C53.5697485,289.656865 52.1515365,288.787305 51.0128261,287.73141 C49.8741157,286.675514 49.014907,285.433285 48.4351999,284.004721 C47.8554928,282.576157 47.5656392,280.971611 47.5656392,279.191082 C47.5656392,276.499584 48.2592174,274.20146 49.6463737,272.296708 C51.0335299,270.391956 52.9072261,268.942688 55.2674622,267.948905 C57.6276982,266.955121 60.2363802,266.458229 63.0935081,266.458229 C65.7850053,266.458229 68.2798163,266.861954 70.5779409,267.669403 C72.7228572,268.423022 74.4980491,269.366012 75.9035168,270.498374 L76.1990294,270.743921 C77.3998513,271.696297 78.0002622,272.7936 78.0002622,274.035829 C78.0002622,274.946798 77.6482972,275.774951 76.9443671,276.520288 C76.240437,277.265626 75.412284,277.638295 74.4599081,277.638295 C73.8387933,277.638295 73.27979,277.45196 72.7828982,277.079292 C72.1203758,276.499584 71.2301114,275.950933 70.1121048,275.433337 C68.9940982,274.915742 67.8139802,274.480961 66.5717507,274.128996 C65.3295212,273.777031 64.170107,273.601049 63.0935081,273.601049 C61.3129791,273.601049 59.8119518,273.828791 58.5904261,274.284275 C57.3689004,274.739759 56.4475802,275.360874 55.8264655,276.147619 C55.2053507,276.934365 54.8947933,277.845333 54.8947933,278.880524 C54.8947933,280.122754 55.2571103,281.147593 55.9817441,281.955042 C56.706378,282.762492 57.7519212,283.40431 59.1183737,283.880498 C60.4848261,284.356686 62.1204283,284.781115 64.0251802,285.153783 C66.5096392,285.609267 68.6938928,286.147567 70.5779409,286.768682 C72.461989,287.389796 74.0251278,288.186894 75.2673573,289.159973 C76.5095868,290.133053 77.4412589,291.354579 78.0623737,292.824551 C78.6834884,294.294522 78.9940458,296.085403 78.9940458,298.197193 C78.9940458,300.88869 78.2487081,303.207519 76.7580327,305.153678 C75.2673573,307.099838 73.3108458,308.590513 70.8884982,309.625705 C68.4661507,310.660896 65.8471168,311.178492 63.0313966,311.178492 Z M102.969075,276.706623 C105.950426,276.706623 108.217495,277.348441 109.770282,278.632078 C111.323069,279.915716 112.389316,281.623781 112.969023,283.756275 C113.54873,285.888769 113.838584,288.259357 113.838584,290.868039 L113.838584,306.768577 C113.838584,307.845176 113.486619,308.745792 112.782688,309.470426 C112.078758,310.19506 111.188494,310.557377 110.111895,310.557377 C109.035296,310.557377 108.145032,310.19506 107.441102,309.470426 C106.737172,308.745792 106.385206,307.845176 106.385206,306.768577 L106.385206,290.868039 C106.385206,289.501587 106.219576,288.269709 105.888315,287.172406 C105.557053,286.075104 104.956643,285.195191 104.087082,284.532669 C103.217521,283.870146 101.975292,283.538885 100.360393,283.538885 C98.7869026,283.538885 97.441154,283.870146 96.3231474,284.532669 C95.2051409,285.195191 94.366636,286.075104 93.8076327,287.172406 C93.2486294,288.269709 92.9691278,289.501587 92.9691278,290.868039 L92.9691278,306.768577 C92.9691278,307.845176 92.6171627,308.745792 91.9132327,309.470426 C91.2093026,310.19506 90.3190381,310.557377 89.2424392,310.557377 C88.1658403,310.557377 87.2755758,310.19506 86.5716458,309.470426 C85.8677157,308.745792 85.5157507,307.845176 85.5157507,306.768577 L85.5157507,268.383685 C85.5157507,267.307086 85.8677157,266.40647 86.5716458,265.681836 C87.2755758,264.957202 88.1658403,264.594885 89.2424392,264.594885 C90.3190381,264.594885 91.2093026,264.957202 91.9132327,265.681836 C92.6171627,266.40647 92.9691278,267.307086 92.9691278,268.383685 L92.9691278,283.787331 L92.0374556,283.600996 C92.4101245,282.897066 92.9277201,282.141377 93.5902425,281.333928 C94.2527649,280.526478 95.0602141,279.770789 96.01259,279.066859 C96.964966,278.362929 98.0208611,277.793573 99.1802753,277.358793 C100.33969,276.924013 101.602623,276.706623 102.969075,276.706623 Z M128.931672,306.768577 C128.931672,307.845176 128.579707,308.745792 127.875777,309.470426 C127.171847,310.19506 126.281582,310.557377 125.204984,310.557377 C124.128385,310.557377 123.23812,310.19506 122.53419,309.470426 C121.83026,308.745792 121.478295,307.845176 121.478295,306.768577 L121.478295,281.116537 C121.478295,280.039939 121.83026,279.139322 122.53419,278.414688 C123.23812,277.690054 124.128385,277.327737 125.204984,277.327737 C126.281582,277.327737 127.171847,277.690054 127.875777,278.414688 C128.579707,279.139322 128.931672,280.039939 128.931672,281.116537 L128.931672,306.768577 Z M125.142872,273.290492 C123.735012,273.290492 122.741228,273.062749 122.161521,272.607265 C121.581814,272.151781 121.291961,271.344332 121.291961,270.184918 L121.291961,269.0048 C121.291961,267.803978 121.61287,266.986177 122.254688,266.551396 C122.896507,266.116616 123.879939,265.899226 125.204984,265.899226 C126.654251,265.899226 127.668739,266.126968 128.248446,266.582452 C128.828153,267.037936 129.118006,267.845386 129.118006,269.0048 L129.118006,270.184918 C129.118006,271.38574 128.807449,272.203541 128.186334,272.638321 C127.56522,273.073101 126.550732,273.290492 125.142872,273.290492 Z M153.776262,276.706623 C156.674798,276.706623 159.273128,277.441609 161.571252,278.91158 C163.869377,280.381552 165.691314,282.400175 167.037062,284.967449 C168.382811,287.534723 169.055685,290.516074 169.055685,293.911501 C169.055685,297.306929 168.382811,300.298631 167.037062,302.88661 C165.691314,305.474588 163.890081,307.503563 161.633364,308.973534 C159.376647,310.443506 156.840428,311.178492 154.024708,311.178492 C152.368402,311.178492 150.815615,310.909342 149.366347,310.371042 C147.91708,309.832743 146.643794,309.149517 145.546492,308.321364 C144.449189,307.493211 143.600332,306.654706 142.999921,305.805849 C142.39951,304.956992 142.099305,304.24271 142.099305,303.663003 L144.024761,302.855554 L144.024761,319.190872 C144.024761,320.267471 143.672796,321.168087 142.968866,321.892721 C142.264935,322.617355 141.374671,322.979672 140.298072,322.979672 C139.221473,322.979672 138.331209,322.627707 137.627279,321.923777 C136.923349,321.219847 136.571384,320.308878 136.571384,319.190872 L136.571384,281.116538 C136.571384,280.039939 136.923349,279.139322 137.627279,278.414688 C138.331209,277.690054 139.221473,277.327738 140.298072,277.327738 C141.374671,277.327738 142.264935,277.690054 142.968866,278.414688 C143.672796,279.139322 144.024761,280.039939 144.024761,281.116538 L144.024761,284.16 L142.968866,283.600997 C142.968866,283.062697 143.258719,282.410527 143.838426,281.644485 C144.418133,280.878444 145.204879,280.112402 146.198662,279.34636 C147.192446,278.580319 148.341508,277.948852 149.645849,277.45196 C150.95019,276.955069 152.326994,276.706623 153.776262,276.706623 Z M152.84459,283.538885 C151.022653,283.538885 149.428459,283.994369 148.062006,284.905338 C146.695554,285.816306 145.629307,287.048183 144.863266,288.60097 C144.097224,290.153757 143.714203,291.923934 143.714203,293.911501 C143.714203,295.857661 144.097224,297.627838 144.863266,299.222033 C145.629307,300.816227 146.695554,302.068809 148.062006,302.979777 C149.428459,303.890745 151.022653,304.346229 152.84459,304.346229 C154.666527,304.346229 156.250369,303.890745 157.596118,302.979777 C158.941867,302.068809 159.997762,300.816227 160.763803,299.222033 C161.529845,297.627838 161.912865,295.857661 161.912865,293.911501 C161.912865,291.923934 161.529845,290.153757 160.763803,288.60097 C159.997762,287.048183 158.941867,285.816306 157.596118,284.905338 C156.250369,283.994369 154.666527,283.538885 152.84459,283.538885 Z M182.595987,306.768577 C182.595987,307.845176 182.244022,308.745792 181.540092,309.470426 C180.836162,310.19506 179.945897,310.557377 178.869298,310.557377 C177.792699,310.557377 176.902435,310.19506 176.198505,309.470426 C175.494575,308.745792 175.14261,307.845176 175.14261,306.768577 L175.14261,281.116537 C175.14261,280.039939 175.494575,279.139322 176.198505,278.414688 C176.902435,277.690054 177.792699,277.327737 178.869298,277.327737 C179.945897,277.327737 180.836162,277.690054 181.540092,278.414688 C182.244022,279.139322 182.595987,280.039939 182.595987,281.116537 L182.595987,306.768577 Z M178.807187,273.290492 C177.399327,273.290492 176.405543,273.062749 175.825836,272.607265 C175.246129,272.151781 174.956275,271.344332 174.956275,270.184918 L174.956275,269.0048 C174.956275,267.803978 175.277185,266.986177 175.919003,266.551396 C176.560822,266.116616 177.544253,265.899226 178.869298,265.899226 C180.318566,265.899226 181.333053,266.126968 181.912761,266.582452 C182.492468,267.037936 182.782321,267.845386 182.782321,269.0048 L182.782321,270.184918 C182.782321,271.38574 182.471764,272.203541 181.850649,272.638321 C181.229534,273.073101 180.215047,273.290492 178.807187,273.290492 Z M190.608367,277.948852 L205.328787,277.948852 C206.32257,277.948852 207.150723,278.280113 207.813246,278.942636 C208.475768,279.605158 208.807029,280.433311 208.807029,281.427095 C208.807029,282.379471 208.475768,283.176568 207.813246,283.818387 C207.150723,284.460205 206.32257,284.781115 205.328787,284.781115 L190.608367,284.781115 C189.614583,284.781115 188.78643,284.449853 188.123908,283.787331 C187.461386,283.124808 187.130124,282.296655 187.130124,281.302872 C187.130124,280.350496 187.461386,279.553399 188.123908,278.91158 C188.78643,278.269761 189.614583,277.948852 190.608367,277.948852 Z M197.254295,270.184918 C198.330894,270.184918 199.210806,270.547235 199.894033,271.271869 C200.577259,271.996502 200.918872,272.897119 200.918872,273.973718 L200.918872,301.613324 C200.918872,302.193031 201.032743,302.669219 201.260485,303.041888 C201.488227,303.414557 201.798785,303.683707 202.192157,303.849337 C202.58553,304.014968 203.009958,304.097783 203.465443,304.097783 C203.879519,304.097783 204.26484,304.033084 204.621406,303.903685 L204.831895,303.818282 C205.245971,303.631947 205.722159,303.53878 206.260459,303.53878 C206.840166,303.53878 207.368114,303.80793 207.844302,304.346229 C208.32049,304.884529 208.558583,305.629866 208.558583,306.582242 C208.558583,307.741657 207.927117,308.694032 206.664183,309.43937 C205.40125,310.184708 204.04515,310.557377 202.595882,310.557377 C201.726321,310.557377 200.763593,310.484913 199.707698,310.339987 C198.651803,310.19506 197.65802,309.843095 196.726347,309.284092 C195.794675,308.725088 195.018282,307.86588 194.397167,306.706465 C193.776052,305.547051 193.465495,303.952857 193.465495,301.923882 L193.465495,273.973718 C193.465495,272.897119 193.827812,271.996502 194.552446,271.271869 C195.27708,270.547235 196.177696,270.184918 197.254295,270.184918 Z" fill="#222222"/>
    <g>
      <path d="M0,125.062295 C108.44926,160.655464 179.882985,183.510197 256,146.451428 C242.497751,164.363526 226.869882,181.553552 201.891509,195.567213 C149.354865,207.027742 96.8182201,204.103109 44.2815755,195.567213 C2.91481718,171.297309 0.651544223,156.170746 0,125.062295 Z" fill="#444361"/>
      <path d="M0,125.062295 C114.102935,182.381039 180.638323,189.047662 256,146.451428 C242.497751,164.363526 254.428154,184.106685 201.891509,195.567213 C149.354865,207.027742 85.6483338,219.837117 44.2815755,195.567213 C2.91481718,171.297309 0.651544223,156.170746 0,125.062295 Z" fill="url(#a)"/>
      <path d="M135.214117,0 C162.905605,13.6750514 201.323032,66.1830474 235.855738,139.184287 C201.687143,146.512033 168.518727,158.943898 141.84918,146.875368 C150.208618,99.7668139 143.273699,48.5438933 135.214117,0 Z" fill="#E78724"/>
      <path d="M161.993443,27.6983607 C185.9216,52.3020506 209.423239,89.0475546 232.498361,137.934873 C225.528545,138.677447 216.616507,138.677447 205.762245,137.934873 C208.668693,125.654052 194.079093,88.9085475 161.993443,27.6983607 Z" fill="#FBA919"/>
      <path d="M128.419672,34.4131148 L128.419672,139.257921 C122.85664,152.695028 107.013092,151.580589 80.8890281,135.914602 C73.456076,131.457236 60.7619192,130.564325 42.8065574,133.235871 C49.6808918,110.408958 80.1801791,76.5522331 128.419672,34.4131148 Z" fill="#E78724"/>
      <path d="M99.042623,71.3442623 L74.0066763,124.222951 L58.7540984,124.222951 C65.3229786,103.961059 82.8611693,87.9132708 99.042623,71.3442623 Z" fill="#FBA919"/>
    </g>
  </g>
</svg>

<svg viewBox="0 0 256 323" xmlns="http://www.w3.org/2000/svg" preserveAspectRatio="xMidYMid" height="1em" width="1em">
  <defs>
    <linearGradient x1="50%" y1="0%" x2="50%" y2="100%" id="a">
      <stop stop-color="#8783DC" offset="0%"/>
      <stop stop-color="#444361" offset="100%"/>
    </linearGradient>
  </defs>
  <path d="M63.031 311.178c-2.898 0-5.507-.362-7.826-1.086-2.318-.725-4.534-1.998-6.646-3.82a4.902 4.902 0 0 1-1.242-1.553c-.29-.58-.435-1.16-.435-1.74 0-.952.342-1.79 1.025-2.515.683-.724 1.543-1.087 2.578-1.087.787 0 1.49.249 2.112.746 1.573 1.283 3.136 2.256 4.69 2.919 1.552.662 3.467.994 5.744.994 1.532 0 2.94-.238 4.224-.715 1.284-.476 2.319-1.118 3.106-1.925.786-.808 1.18-1.729 1.18-2.764 0-1.242-.373-2.298-1.118-3.168-.746-.87-1.884-1.604-3.416-2.205-1.533-.6-3.479-1.066-5.839-1.397-2.236-.331-4.203-.839-5.9-1.522-1.698-.683-3.116-1.553-4.255-2.609a10.315 10.315 0 0 1-2.578-3.726c-.58-1.429-.87-3.033-.87-4.814 0-2.691.694-4.99 2.081-6.894 1.388-1.905 3.261-3.354 5.621-4.348 2.36-.994 4.97-1.49 7.827-1.49 2.691 0 5.186.403 7.484 1.21 2.145.754 3.92 1.697 5.326 2.83l.295.245c1.2.952 1.801 2.05 1.801 3.292 0 .91-.352 1.739-1.056 2.484-.704.746-1.532 1.118-2.484 1.118-.621 0-1.18-.186-1.677-.559-.663-.58-1.553-1.128-2.67-1.646a23.955 23.955 0 0 0-3.541-1.304c-1.242-.352-2.402-.528-3.478-.528-1.781 0-3.282.228-4.504.683-1.221.456-2.142 1.077-2.764 1.864-.62.786-.931 1.697-.931 2.733 0 1.242.362 2.267 1.087 3.074.724.807 1.77 1.45 3.136 1.925 1.367.477 3.002.901 4.907 1.274 2.485.455 4.669.994 6.553 1.615 1.884.62 3.447 1.418 4.69 2.391a9.053 9.053 0 0 1 2.794 3.665c.621 1.47.932 3.26.932 5.372 0 2.692-.745 5.01-2.236 6.957-1.49 1.946-3.447 3.437-5.87 4.472-2.422 1.035-5.04 1.552-7.857 1.552Zm39.938-34.471c2.981 0 5.248.641 6.801 1.925s2.62 2.992 3.199 5.124c.58 2.133.87 4.503.87 7.112v15.9c0 1.077-.352 1.978-1.056 2.702-.704.725-1.595 1.087-2.671 1.087-1.077 0-1.967-.362-2.67-1.087-.705-.724-1.057-1.625-1.057-2.701v-15.901c0-1.366-.165-2.598-.497-3.696-.33-1.097-.931-1.977-1.8-2.64-.87-.662-2.113-.993-3.728-.993-1.573 0-2.919.331-4.037.994-1.118.662-1.956 1.542-2.515 2.64-.56 1.097-.839 2.329-.839 3.695v15.9c0 1.077-.352 1.978-1.056 2.702-.704.725-1.594 1.087-2.67 1.087-1.077 0-1.967-.362-2.671-1.087-.704-.724-1.056-1.625-1.056-2.701v-38.385c0-1.077.352-1.978 1.056-2.702.704-.725 1.594-1.087 2.67-1.087 1.077 0 1.967.362 2.671 1.087.704.724 1.056 1.625 1.056 2.702v15.403l-.932-.186c.373-.704.89-1.46 1.553-2.267.663-.808 1.47-1.563 2.423-2.267a12.942 12.942 0 0 1 3.167-1.708c1.16-.435 2.423-.652 3.79-.652Zm25.963 30.062c0 1.076-.352 1.977-1.056 2.701-.704.725-1.594 1.087-2.671 1.087-1.077 0-1.967-.362-2.67-1.087-.705-.724-1.057-1.625-1.057-2.701v-25.652c0-1.077.352-1.978 1.056-2.702.704-.725 1.594-1.087 2.671-1.087 1.077 0 1.967.362 2.67 1.087.705.724 1.057 1.625 1.057 2.702v25.652Zm-3.79-33.479c-1.407 0-2.4-.227-2.98-.683-.58-.455-.87-1.263-.87-2.422v-1.18c0-1.201.32-2.019.963-2.454.642-.434 1.625-.652 2.95-.652 1.45 0 2.464.228 3.043.683.58.456.87 1.263.87 2.423v1.18c0 1.2-.31 2.019-.932 2.453-.62.435-1.635.652-3.043.652Zm28.634 3.417c2.899 0 5.497.735 7.795 2.205 2.298 1.47 4.12 3.488 5.466 6.055 1.346 2.568 2.019 5.55 2.019 8.945 0 3.395-.673 6.387-2.019 8.975s-3.147 4.617-5.404 6.087c-2.256 1.47-4.793 2.204-7.608 2.204-1.657 0-3.21-.269-4.659-.807-1.449-.538-2.722-1.221-3.82-2.05-1.097-.828-1.946-1.666-2.546-2.515-.6-.849-.9-1.563-.9-2.143l1.925-.807v16.335c0 1.076-.352 1.977-1.056 2.702-.704.724-1.594 1.087-2.67 1.087-1.078 0-1.968-.352-2.672-1.056-.704-.704-1.056-1.615-1.056-2.733v-38.074c0-1.077.352-1.978 1.056-2.702.704-.725 1.594-1.087 2.671-1.087 1.077 0 1.967.362 2.67 1.087.705.724 1.057 1.625 1.057 2.702v3.043l-1.056-.559c0-.538.29-1.19.87-1.957.58-.766 1.366-1.532 2.36-2.298.993-.766 2.143-1.397 3.447-1.894a11.503 11.503 0 0 1 4.13-.745Zm-.931 6.832c-1.822 0-3.417.455-4.783 1.366-1.366.911-2.433 2.143-3.199 3.696-.766 1.553-1.149 3.323-1.149 5.31 0 1.947.383 3.717 1.15 5.311.765 1.594 1.832 2.847 3.198 3.758 1.366.91 2.96 1.366 4.783 1.366 1.822 0 3.405-.455 4.751-1.366 1.346-.911 2.402-2.164 3.168-3.758.766-1.594 1.149-3.364 1.149-5.31 0-1.988-.383-3.758-1.15-5.311-.765-1.553-1.821-2.785-3.167-3.696-1.346-.91-2.93-1.366-4.751-1.366Zm29.751 23.23c0 1.076-.352 1.977-1.056 2.701-.704.725-1.594 1.087-2.67 1.087-1.077 0-1.968-.362-2.671-1.087-.704-.724-1.056-1.625-1.056-2.701v-25.652c0-1.077.352-1.978 1.056-2.702.703-.725 1.594-1.087 2.67-1.087 1.077 0 1.967.362 2.671 1.087.704.724 1.056 1.625 1.056 2.702v25.652Zm-3.789-33.479c-1.408 0-2.401-.227-2.981-.683-.58-.455-.87-1.263-.87-2.422v-1.18c0-1.201.321-2.019.963-2.454.642-.434 1.625-.652 2.95-.652 1.45 0 2.464.228 3.044.683.58.456.87 1.263.87 2.423v1.18c0 1.2-.311 2.019-.932 2.453-.621.435-1.636.652-3.044.652Zm11.801 4.659h14.72c.995 0 1.823.331 2.485.994.663.662.994 1.49.994 2.484 0 .952-.331 1.75-.994 2.391-.662.642-1.49.963-2.484.963h-14.72c-.994 0-1.823-.331-2.485-.994-.663-.662-.994-1.49-.994-2.484 0-.953.331-1.75.994-2.391.662-.642 1.49-.963 2.484-.963Zm6.646-7.764c1.077 0 1.957.362 2.64 1.087s1.025 1.625 1.025 2.702v27.64c0 .579.114 1.055.341 1.428.228.373.539.642.932.807.394.166.818.249 1.273.249.415 0 .8-.065 1.156-.194l.21-.086c.415-.186.891-.28 1.43-.28.58 0 1.107.27 1.583.808.476.539.715 1.284.715 2.236 0 1.16-.632 2.112-1.895 2.857a7.87 7.87 0 0 1-4.068 1.118c-.87 0-1.832-.072-2.888-.217a7.803 7.803 0 0 1-2.982-1.056c-.931-.559-1.708-1.418-2.329-2.578-.62-1.159-.932-2.753-.932-4.782v-27.95c0-1.077.363-1.977 1.087-2.702.725-.725 1.626-1.087 2.702-1.087Z" fill="#222"/>
  <path d="M0 125.062c108.45 35.593 179.883 58.448 256 21.39-13.502 17.912-29.13 35.102-54.108 49.115-52.537 11.46-105.074 8.536-157.61 0C2.915 171.297.652 156.171 0 125.062Z" fill="#444361"/>
  <path d="M0 125.062c114.103 57.319 180.638 63.986 256 21.39-13.502 17.912-1.572 37.655-54.108 49.115-52.537 11.46-116.244 24.27-157.61 0C2.915 171.297.652 156.171 0 125.062Z" fill="url(#a)"/>
  <path d="M135.214 0c27.692 13.675 66.109 66.183 100.642 139.184-34.169 7.328-67.337 19.76-94.007 7.691 8.36-47.108 1.425-98.331-6.635-146.875Z" fill="#E78724"/>
  <path d="M161.993 27.698c23.929 24.604 47.43 61.35 70.505 110.237-6.97.742-15.881.742-26.736 0 2.907-12.28-11.683-49.026-43.769-110.237Z" fill="#FBA919"/>
  <path d="M128.42 34.413v104.845c-5.563 13.437-21.407 12.323-47.531-3.343-7.433-4.458-20.127-5.35-38.082-2.68C49.68 110.41 80.18 76.553 128.42 34.414Z" fill="#E78724"/>
  <path d="m99.043 71.344-25.036 52.879H58.754c6.569-20.262 24.107-36.31 40.289-52.879Z" fill="#FBA919"/>
</svg>
